public/avatar/shoe/64.svg

<svg xmlns:xlink="http://www.w3.org/1999/xlink" height="38.3" width="36.05" xmlns="http://www.w3.org/2000/svg"><use height="15.9" transform="translate(13.95 12)" width="17.3" xlink:href="#a"/><defs><g id="a" fill-rule="evenodd"><path d="m4.7-1.55 2.2 4.7q1.05 3.75.15 5.1-3 4.8-9.55 4.8-5.25 0-6.65-1.55-1.55-1.65.25-5.9 3-7.55 5.25-8.3l4.8-.15q3.05.45 3.55 1.3" transform="translate(9.85 2.85)"/><path d="M3.25 9.75Q2.3 11.85-1 11.7q-1-.85-1.4-.85-1.4.8-2.4.6-5.35-.75-3.95-4.4 1.35-3.7 7.35-2.9 2.85.4 4.2 2.3 1.15 1.7.45 3.3" fill="#bc855a" transform="translate(9.85 2.85)"/><path d="M1.5 11.2q-2.55 1.15-3.9-.35-1.7 1.3-4.4.2-2.15-.9-2.4-2.4l.2-1.4 1.15 1.15q1.25 1.2 2.3 1.4 1.55.3 3.8-.65.15 0 .15.75.2.7 1.4.8 2.55.05 3.45-2.9.8 2.25-1.75 3.4" fill="#8a6341" transform="translate(9.85 2.85)"/><path d="M5.2 3.75Q3.15 5.2 2.65 4.8q-.5-.35-.1-1.95.35-1.6 1-1.6t1.45 1q.85 1.1.2 1.5" fill="#5e5a56" transform="translate(9.85 2.85)"/></g></defs></svg>

<?xml version="1.0" encoding="UTF-8" standalone="no"?>
<svg xmlns:xlink="http://www.w3.org/1999/xlink" height="38.3px" width="36.05px" xmlns="http://www.w3.org/2000/svg">
  <g transform="matrix(1.0, 0.0, 0.0, 1.0, 23.8, 14.85)">
    <use height="15.9" transform="matrix(1.0, 0.0, 0.0, 1.0, -9.85, -2.85)" width="17.3" xlink:href="#shape0"/>
  </g>
  <defs>
    <g id="shape0" transform="matrix(1.0, 0.0, 0.0, 1.0, 9.85, 2.85)">
      <path d="M4.7 -1.55 L6.9 3.15 Q7.95 6.9 7.05 8.25 4.05 13.05 -2.5 13.05 -7.75 13.05 -9.15 11.5 -10.7 9.85 -8.9 5.6 -5.9 -1.95 -3.65 -2.7 L1.15 -2.85 Q4.2 -2.4 4.7 -1.55" fill="#000000" fill-rule="evenodd" stroke="none"/>
      <path d="M3.25 9.75 Q2.3 11.85 -1.0 11.7 -2.0 10.85 -2.4 10.85 -3.8 11.65 -4.8 11.45 -10.15 10.7 -8.75 7.05 -7.4 3.35 -1.4 4.15 1.45 4.55 2.8 6.45 3.95 8.15 3.25 9.75" fill="#bc855a" fill-rule="evenodd" stroke="none"/>
      <path d="M1.5 11.2 Q-1.05 12.35 -2.4 10.85 -4.1 12.15 -6.8 11.05 -8.95 10.15 -9.2 8.65 L-9.0 7.25 -7.85 8.4 Q-6.6 9.6 -5.55 9.8 -4.0 10.1 -1.75 9.15 -1.6 9.15 -1.6 9.9 -1.4 10.6 -0.2 10.7 2.35 10.75 3.25 7.8 4.05 10.05 1.5 11.2" fill="#8a6341" fill-rule="evenodd" stroke="none"/>
      <path d="M5.2 3.75 Q3.15 5.2 2.65 4.8 2.15 4.45 2.55 2.85 2.9 1.25 3.55 1.25 4.2 1.25 5.0 2.25 5.85 3.35 5.2 3.75" fill="#5e5a56" fill-rule="evenodd" stroke="none"/>
    </g>
  </defs>
</svg>
